assets/imgs/maleta.svg

<svg width="24" height="22" viewBox="0 0 24 22" fill="none" xmlns="http://www.w3.org/2000/svg">
<path d="M23.2969 4.64844H16.9395V3.25119C16.9395 1.6857 15.6658 0.412109 14.1004 0.412109H9.89967C8.33423 0.412109 7.06059 1.6857 7.06059 3.25119V4.64844H0.703125C0.314812 4.64844 0 4.96325 0 5.35156V18.125C0 20.0345 1.55348 21.5879 3.46289 21.5879H20.5371C22.4465 21.5879 24 20.0345 24 18.125V5.35156C24 4.96325 23.6852 4.64844 23.2969 4.64844ZM13.5954 13.8242C13.5954 14.7039 12.8797 15.4196 12 15.4196C11.1203 15.4196 10.4046 14.7039 10.4046 13.8242V12.2288H13.5954V13.8242ZM14.2985 10.8226H9.70148C9.31317 10.8226 8.99836 11.1374 8.99836 11.5257V12.8029C4.90955 11.9155 1.84444 9.26338 1.45008 6.05469H22.5499C22.1555 9.26338 19.0905 11.9155 15.0016 12.803V11.5258C15.0016 11.1374 14.6868 10.8226 14.2985 10.8226ZM8.4668 3.25119C8.4668 2.46111 9.10959 1.81836 9.89962 1.81836H14.1003C14.8904 1.81836 15.5332 2.46111 15.5332 3.25119V4.64844H8.46675V3.25119H8.4668ZM22.5938 18.125C22.5938 19.259 21.6711 20.1816 20.5371 20.1816H3.46289C2.32889 20.1816 1.40625 19.259 1.40625 18.125V9.68066C1.97391 10.4924 2.70581 11.242 3.59002 11.9051C5.12222 13.0542 6.99277 13.8521 9.02855 14.2457C9.23414 15.7018 10.488 16.8258 12 16.8258C13.512 16.8258 14.7659 15.7018 14.9715 14.2457C17.0072 13.8521 18.8777 13.0542 20.41 11.9051C21.2942 11.242 22.0261 10.4923 22.5938 9.68066V18.125Z" fill="#5f712d"/>
</svg>

<svg width="24" height="22" fill="none" xmlns="http://www.w3.org/2000/svg"><path d="M23.297 4.648h-6.358V3.251A2.842 2.842 0 0014.1.412H9.9a2.842 2.842 0 00-2.84 2.84v1.396H.704A.703.703 0 000 5.352v12.773a3.467 3.467 0 003.463 3.463h17.074A3.467 3.467 0 0024 18.125V5.352a.703.703 0 00-.703-.704zm-9.702 9.176c0 .88-.715 1.596-1.595 1.596s-1.595-.716-1.595-1.596V12.23h3.19v1.595zm.704-3.001H9.7a.703.703 0 00-.703.703v1.277c-4.088-.888-7.154-3.54-7.548-6.748h21.1c-.395 3.208-3.46 5.86-7.548 6.748v-1.277a.703.703 0 00-.704-.703zM8.466 3.25c0-.79.643-1.433 1.433-1.433h4.2c.79 0 1.433.643 1.433 1.433v1.397H8.467V3.251zm14.127 14.874a2.059 2.059 0 01-2.057 2.057H3.463a2.059 2.059 0 01-2.057-2.057V9.681a9.869 9.869 0 002.184 2.224c1.532 1.15 3.403 1.947 5.439 2.34A3.006 3.006 0 0012 16.826a3.006 3.006 0 002.972-2.58c2.035-.393 3.906-1.19 5.438-2.34a9.872 9.872 0 002.184-2.224v8.444z" fill="#5f712d"/></svg>
